packages/foundations/assets/icons/functional/images/human/clothes_hanger_32.svg

<svg width="32" height="32" viewBox="0 0 32 32" fill="none" xmlns="http://www.w3.org/2000/svg">
<g clip-path="url(#clip0_185_1123)">
<path fill-rule="evenodd" clip-rule="evenodd" d="M15.9997 7C18.2088 7 19.9997 8.79086 19.9997 11C19.9997 12.8509 18.7277 13.7966 18.0702 14.2593C17.4126 14.7219 17.0712 14.722 17.0199 15.5099L17.0002 16.293L28.1359 20.1372C29.4409 20.5883 30.133 22.0118 29.682 23.3168C29.3531 24.2682 28.4823 24.9629 27.3539 25H4.68018C3.29946 25 2.18018 23.8807 2.18018 22.5C2.18018 21.4933 2.78299 20.5912 3.69863 20.2007L15.0009 16.292C15.0009 14.3911 15.2747 13.592 16.4916 12.8904C17.5771 12.2452 17.9997 11.7263 17.9997 11C17.9997 9.89543 17.1042 9 15.9997 9C14.9453 9 14.0534 9.80046 13.9997 11C13.9997 11.547 13.5519 12 12.9997 12C12.4474 12 11.9997 11.5523 11.9997 11C11.9997 8.79086 13.7905 7 15.9997 7ZM15.9997 18.1177C15.8772 18.1177 15.687 18.1637 15.4292 18.2556L4.51682 22.0274C4.31534 22.0971 4.18018 22.2868 4.18018 22.5C4.18018 22.7455 4.35705 22.9496 4.5903 22.9919L27.3191 23C27.5323 23 27.7221 22.8648 27.7917 22.6634C27.8719 22.4314 27.7917 22.0977 27.3539 21.985L16.5701 18.2556C16.3123 18.1637 16.1222 18.1177 15.9997 18.1177Z" fill="#1A1C1F"/>
</g>
<defs>
<clipPath id="clip0_185_1123">
<rect width="32" height="32" fill="white"/>
</clipPath>
</defs>
</svg>

<svg xmlns="http://www.w3.org/2000/svg" width="32" height="32" fill="none"><g clip-path="url(#a)"><path fill="#1A1C1F" fill-rule="evenodd" d="M16 7a4 4 0 0 1 4 4c0 1.85-1.272 2.797-1.93 3.26s-.999.462-1.05 1.25l-.02.783 11.136 3.844a2.5 2.5 0 0 1 1.546 3.18c-.329.951-1.2 1.646-2.328 1.683H4.68a2.5 2.5 0 0 1-.981-4.8L15 16.293c0-1.9.274-2.7 1.49-3.402C17.578 12.245 18 11.726 18 11a2 2 0 0 0-2-2c-1.055 0-1.947.8-2 2a1 1 0 1 1-2 0 4 4 0 0 1 4-4m0 11.118q-.184 0-.57.138L4.516 22.027a.5.5 0 0 0 .073.965L27.32 23a.5.5 0 0 0 .472-.337c.08-.232 0-.565-.438-.678l-10.784-3.73q-.387-.137-.57-.137" clip-rule="evenodd"/></g><defs><clipPath id="a"><path fill="#fff" d="M0 0h32v32H0z"/></clipPath></defs></svg>
